X: 24921
T: Maid At The Well, The
R: jig
M: 6/8
K: Gmajor
|:GED D3|GEG c2e|dBG GAB|AGE {A}E3|
GED D3|GEG c2e|dBG GAB|1 AGF G3:|2 AGF G2d||
|:gdB GBd|gdB c2e|dBG GAB|AGE {A}E3|
gdB GBd|gdB c2e|dBG GAB|AGf g3|
gdB GBd|gdB c2e|dBG GAB|AGE {A}E3|
GED D3|GEG c2e|dBG GAB|AGF G3||

